X:1618
L:1/8
Q:1/4=96
M:6/8
K:Bb
 F | d2 d dcd | (B3 F2) F | B2 d d2 f | f2 e c2 A | c2 c c{d}Bc | (g3 g2) g | fgf edc | 
 (B3 B2)!fine! || F | F2 A A2 c | c2 e e2 F | F2 B B2 d | d2 f f2 ^f | g3 (g^fg) | e3 (ede) | 
 cdB ABG | F2 f (ed)c | d2 d{f} (dc)d | B3 F2 F | B2 d d2 f | f2 e c2 A | c2 c{d} (cB)c | 
 (g3 g2) g | fgf edc | (B3 B2)!D.C.! |]

